pix/t/edit_menu.svg

<!DOCTYPE svg PUBLIC "-//W3C//DTD SVG 1.1//EN" "http://www.w3.org/Graphics/SVG/1.1/DTD/svg11.dtd" [
	<!ENTITY ns_flows "http://ns.adobe.com/Flows/1.0/">
]><svg xmlns="http://www.w3.org/2000/svg" width="22" height="12" viewBox="0 0 22 12" preserveAspectRatio="xMinYMid meet" overflow="visible"><path d="M11.9 7c.1-.3.1-.7.1-1s0-.7-.1-1l-1.6-.3c-.1-.3-.2-.6-.4-.9l.9-1.3c-.3-.5-.8-1-1.3-1.4L8.1 2c-.2-.1-.5-.2-.8-.3L7 .1C6.7 0 6.3 0 6 0c-.3 0-.7 0-1 .1l-.3 1.6c-.3.1-.6.2-.8.3l-1.4-.9c-.5.4-1 .9-1.4 1.4L2 3.9c-.1.2-.2.5-.3.8L.1 5c-.1.3-.1.7-.1 1 0 .3 0 .7.1 1l1.6.3c.1.3.2.6.3.8l-.9 1.4c.4.5.9 1 1.4 1.4l1.4-.9c.3.1.6.3.9.4l.2 1.5c.3.1.7.1 1 .1.3 0 .7 0 1-.1l.3-1.6c.3-.1.6-.2.9-.4l1.3.9c.5-.4 1-.9 1.4-1.4L10 8.1c.2-.3.3-.6.4-.9l1.5-.2zM6 7.5c-.8 0-1.5-.7-1.5-1.5S5.2 4.5 6 4.5s1.5.7 1.5 1.5S6.8 7.5 6 7.5zM15 4h7l-3.5 3.5L15 4z" fill="#999"/></svg>

<?xml version="1.0" encoding="utf-8"?>
<!-- Generator: Adobe Illustrator 15.1.0, SVG Export Plug-In  -->
<!DOCTYPE svg PUBLIC "-//W3C//DTD SVG 1.1//EN" "http://www.w3.org/Graphics/SVG/1.1/DTD/svg11.dtd" [
	<!ENTITY ns_flows "http://ns.adobe.com/Flows/1.0/">
]>
<svg version="1.1"
	 xmlns="http://www.w3.org/2000/svg" xmlns:xlink="http://www.w3.org/1999/xlink" xmlns:a="http://ns.adobe.com/AdobeSVGViewerExtensions/3.0/"
	 x="0px" y="0px" width="22px" height="12px" viewBox="0 0 22 12" style="overflow:visible;enable-background:new 0 0 22 12;"
	 xml:space="preserve" preserveAspectRatio="xMinYMid meet">
<defs>
</defs>
<path style="fill:#999999;" d="M11.9,7C12,6.7,12,6.3,12,6s0-0.7-0.1-1l-1.6-0.3c-0.1-0.3-0.2-0.6-0.4-0.9l0.9-1.3
	C10.5,2,10,1.5,9.5,1.1L8.1,2C7.9,1.9,7.6,1.8,7.3,1.7L7,0.1C6.7,0,6.3,0,6,0C5.7,0,5.3,0,5,0.1L4.7,1.7C4.4,1.8,4.1,1.9,3.9,2
	L2.5,1.1C2,1.5,1.5,2,1.1,2.5L2,3.9C1.9,4.1,1.8,4.4,1.7,4.7L0.1,5C0,5.3,0,5.7,0,6c0,0.3,0,0.7,0.1,1l1.6,0.3
	C1.8,7.6,1.9,7.9,2,8.1L1.1,9.5c0.4,0.5,0.9,1,1.4,1.4L3.9,10c0.3,0.1,0.6,0.3,0.9,0.4L5,11.9C5.3,12,5.7,12,6,12c0.3,0,0.7,0,1-0.1
	l0.3-1.6c0.3-0.1,0.6-0.2,0.9-0.4l1.3,0.9c0.5-0.4,1-0.9,1.4-1.4L10,8.1c0.2-0.3,0.3-0.6,0.4-0.9L11.9,7z M6,7.5
	C5.2,7.5,4.5,6.8,4.5,6S5.2,4.5,6,4.5S7.5,5.2,7.5,6S6.8,7.5,6,7.5z M15,4H22l-3.5,3.5L15,4L15,4z"/>
</svg>
